X:1
T:Minecraft Medley 1
T:Sweden
T:C418 Arr: Gannon Rothgeb
T:From "minecraft"
C:By C418 Musescore: Torby Brand
%%score { 1 | 2 }
L:1/8
Q:1/4=48
M:4/4
K:D
V:1 treble nm="Piano" snm="Pno."
V:2 bass 
V:1
"Em"!p!"^A""_Largo,molto espressivo" [E,G,B,]4"D/G" [A,DF]4 |"F#m/A" [F,A,C]4"A/D" [A,CE]4 | %2
"Em""^B" [E,G,B,]2 AB"D/G" [A,DF]3 D/E/ |"F#m/A" [F,A,C]3 F/A/"A/D" [A,CE]4 | %4
"Em""_With pedal." [E,G,B,] dBA"D/G" [A,DF]3 D/E/ |"F#m/A" [F,A,C]3 A/F/"A/D" !fermata![A,CE]4 | %6
"Em"!<(! [E,G,B,]2 AB"D/G" !>![DFd]3 D/E/!<)!!p!"_<sym>dynamicMezzo</sym>" | %7
 [Cc]3 [Fd]/c/"A/D" [A,CEA]4 |"Em" [E,G,B,]2 BA"D/G" [A,DF]3 D/E/ | %9
"F#m/A" [F,A,C]3 F/A/"A/D" !fermata![A,CE]4 |"Em"!>(! [E,G,B,]2 AB"D/G" [A,DF]3 D/E/!>)!!p! | %11
"F#m/A" [F,A,C]3 F/A/"A/D" [A,CE]4 |"Em" [E,G,B,]2 AB"D/G" !>![DFd]3 d/e/ | %13
 [Cc]2 !>!fF/A/"A/D" !fermata![A,CE]4 |"D/B""^C""_espressivo." [A,DF]3 B/A/"E" [B,E^G]2 ED | %15
"A" [E,A,C]2 DE"G" [D,G,B,]4 |"D/B""_rit." !arpeggio![DFAd]3 B/A/"E"!>(! [B,E^G]2 ED!>)!!pp! | %17
"A" [CEAc]2 dD/E/"G" [B,DGB]4- | !fermata![B,DGB]8 |] %19
V:2
 E,,2 F,,2 G,,2 B,,2 | A,,2 G,,2 D,,4 | E,,2 F,,2 G,,2 B,,2 | A,,2 G,,2 D,,4 | %4
 E,,2 F,,2 G,,2 B,,2 | A,,2 G,,2 D,,4 | E,,2 F,,2 G,,2 B,,2 | A,,2 G,,2 D,,4 | %8
 E,,2 F,,2 G,,2 B,,2 | A,,2 G,,2 D,,4 | E,,2 F,,2 G,,2 B,,2 | A,,2 G,,2 D,,4 | %12
 E,,2 F,,2 G,,2 B,,2 | A,,2 G,,2 D,,4 | [B,,,B,,]4 [E,,E,]4 | [A,,,A,,]4 [G,,,G,,]4 | %16
 [B,,,B,,]4 [E,,E,]4 | [A,,,A,,]4 [G,,,G,,]4- | [G,,,G,,]8 |] %19

